src/assets/svg/ic_video_voice.svg

<svg xmlns="http://www.w3.org/2000/svg" width="16" height="16">
    <path d="M15.41 2H15l-3 2.5v2L15 9h.41c.421 0 .59-.252.59-.562V2.562c0-.31-.169-.562-.59-.562zM5.412 4.921c.814.819.805 2.157-.02 2.985l-.277.278-.177.175-.229.223c-.199.2-.228.517-.051.693l.724.725H9.61c.137 0 .269-.021.394-.057.575-.166.996-.687.996-1.306V2.363C11 1.609 10.377 1 9.607 1H3.391C2.627 1 2.008 1.604 2 2.352c.549.006 1.062.22 1.447.605l1.965 1.964z"/>
    <path d="M9.992 11.478c-.273-.269-.725-.257-1.007.024l-.278.277-.392.387c-.76.757-1.96.785-2.685.062l-.328-.326-1.635-1.637c-.724-.724-.694-1.925.064-2.685l.222-.215.17-.169.277-.278c.283-.284.292-.735.021-1.007L2.457 3.946c-.27-.271-.721-.261-1.005.024l-.442.499c-.517.516-.881 1.188-.973 1.77-.232 1.444.615 4.211 3.031 6.626.004.005.01.009.013.011l.013.014c2.414 2.416 5.182 3.264 6.625 3.032.582-.092 1.256-.456 1.771-.972l.443-.498c.283-.285.293-.736.021-1.008l-1.962-1.966z"/>
</svg>

<?xml version="1.0" encoding="utf-8"?>
<!-- Generator: Adobe Illustrator 16.0.4, SVG Export Plug-In . SVG Version: 6.00 Build 0)  -->
<!DOCTYPE svg PUBLIC "-//W3C//DTD SVG 1.1//EN" "http://www.w3.org/Graphics/SVG/1.1/DTD/svg11.dtd">
<svg version="1.1" id="artwork" xmlns="http://www.w3.org/2000/svg" xmlns:xlink="http://www.w3.org/1999/xlink" x="0px" y="0px"
	 width="16px" height="16px" viewBox="0 0 16 16" enable-background="new 0 0 16 16" xml:space="preserve">
<g>
	<path d="M15.41,2H15l-3,2.5v2L15,9h0.41C15.831,9,16,8.748,16,8.438V6V2.562C16,2.252,15.831,2,15.41,2z"/>
	<path d="M5.412,4.921c0.814,0.819,0.805,2.157-0.02,2.985L5.115,8.184L4.938,8.359L4.709,8.582
		c-0.199,0.2-0.228,0.517-0.051,0.693L5.382,10h3.437h0.791c0.137,0,0.269-0.021,0.394-0.057C10.579,9.777,11,9.256,11,8.637V8.5
		V2.363C11,1.609,10.377,1,9.607,1H3.391C2.627,1,2.008,1.604,2,2.352c0.549,0.006,1.062,0.22,1.447,0.605L5.412,4.921z"/>
	<path d="M9.992,11.478c-0.273-0.269-0.725-0.257-1.007,0.024l-0.278,0.277l-0.392,0.387
		c-0.76,0.757-1.96,0.785-2.685,0.062l-0.328-0.326l-1.635-1.637C2.943,9.541,2.973,8.34,3.731,7.58l0.222-0.215l0.17-0.169
		L4.4,6.918c0.283-0.284,0.292-0.735,0.021-1.007L2.457,3.946c-0.27-0.271-0.721-0.261-1.005,0.024L1.01,4.469
		c-0.517,0.516-0.881,1.188-0.973,1.77c-0.232,1.444,0.615,4.211,3.031,6.626c0.004,0.005,0.01,0.009,0.013,0.011
		c0.004,0.004,0.008,0.01,0.013,0.014c2.414,2.416,5.182,3.264,6.625,3.032c0.582-0.092,1.256-0.456,1.771-0.972l0.443-0.498
		c0.283-0.285,0.293-0.736,0.021-1.008L9.992,11.478z"/>
</g>
</svg>
